X: 101
M:6/8
L:1/8
K:G
|:G |B2 c d>ed| c2 B A2 G =F2 E F2 G| A>G=F E3| D2 D G2 G |=F> EF E2 E| D2 G =F>GA G3 G3:|

